assets/document.d9b547e4.svg

<svg viewBox="0 0 324 333" fill="none" xmlns="http://www.w3.org/2000/svg"><path d="M218.578 27.75c41.702 0 64.922 24.697 64.922 67.016v143.329c0 43.012-23.22 67.155-64.922 67.155H105.435c-41.04 0-64.935-24.143-64.935-67.155V94.766c0-42.319 23.895-67.016 64.935-67.016h113.143zM109.08 218.392c-4.05-.416-7.965 1.527-10.125 5.134-2.16 3.469-2.16 8.048 0 11.655 2.16 3.469 6.075 5.55 10.125 4.995h105.84c5.387-.555 9.45-5.286 9.45-10.822 0-5.689-4.063-10.407-9.45-10.962H109.08zm105.84-63.283H109.08c-5.819 0-10.53 4.87-10.53 10.836s4.711 10.822 10.53 10.822h105.84c5.805 0 10.53-4.856 10.53-10.822 0-5.966-4.725-10.836-10.53-10.836zm-65.488-62.84H109.08v.138c-5.819 0-10.53 4.857-10.53 10.823s4.711 10.822 10.53 10.822h40.352c5.818 0 10.543-4.856 10.543-10.975 0-5.952-4.725-10.808-10.543-10.808z" fill="#54C6F9"/></svg>

<svg width="324" height="333" viewBox="0 0 324 333" fill="none" xmlns="http://www.w3.org/2000/svg">
<path d="M218.578 27.75C260.28 27.75 283.5 52.4475 283.5 94.7662V238.095C283.5 281.107 260.28 305.25 218.578 305.25H105.435C64.395 305.25 40.5 281.107 40.5 238.095V94.7662C40.5 52.4475 64.395 27.75 105.435 27.75H218.578ZM109.08 218.392C105.03 217.976 101.115 219.919 98.955 223.526C96.795 226.995 96.795 231.574 98.955 235.181C101.115 238.65 105.03 240.731 109.08 240.176H214.92C220.307 239.621 224.37 234.89 224.37 229.354C224.37 223.665 220.307 218.947 214.92 218.392H109.08ZM214.92 155.109H109.08C103.261 155.109 98.55 159.979 98.55 165.945C98.55 171.911 103.261 176.767 109.08 176.767H214.92C220.725 176.767 225.45 171.911 225.45 165.945C225.45 159.979 220.725 155.109 214.92 155.109ZM149.432 92.2688H109.08V92.4075C103.261 92.4075 98.55 97.2638 98.55 103.23C98.55 109.196 103.261 114.052 109.08 114.052H149.432C155.25 114.052 159.975 109.196 159.975 103.077C159.975 97.125 155.25 92.2688 149.432 92.2688Z" fill="#54C6F9"/>
</svg>
